X: 3517
T: Biddy The Peeler
R: slip jig
M: 9/8
K: Cmajor
|:EDE GEG c2d|ege dcA cAG|EDE GEG c2d|BGB cec d2B:|
GcG ecg edc|Acd edc d2A|GcG ecg edc|dBg dBg edc|
GcG ecg edc|Acd edc dcA|GcG ecg edc|BGB cec d2B|

